X: 1
T: Reinlendar etter Johannes [D]
R: shottish
B: Folklore Village booklet
Z: John Chambers <jc:trillian.mit.edu>
M: C
L: 1/8
K: D
|: "D"F>G ~FE F>G ~FE |     F>G ~FE    F2 D2 | F2 FD "A7"E2 A,C |1 E2 EG "D"F2 D2 :|2 "D"D2 D2 D4 |]
|: "D"F>G  AB A2   AF | "A7"E2   EG "D"F2 D2 | F2 FD "A7"E2 A,C |1 E2 EG "D"F2 D2 :|2 "D"D2 D2 D4 |]
